korla/apps/scalable/org.gnome.design.IconLibrary.svg

<svg xmlns="http://www.w3.org/2000/svg" width="48" height="48" version="1.1">
 <path style="opacity:0.2" d="M 4,13 V 45 H 40.923078 C 42.628305,45 44,43.641367 44,41.952381 V 16.047619 C 44,14.35863 42.628305,13 40.923078,13 Z m 0,0"/>
 <path style="fill:#e4e4e4" d="M 4,12 V 44 H 40.923078 C 42.628305,44 44,42.641367 44,40.952381 V 15.047619 C 44,13.35863 42.628305,12 40.923078,12 Z m 0,0"/>
 <path style="opacity:0.1" d="M 4,5 V 41 H 8 26 41.75 C 42.996584,41 44,39.90483 44,38.544922 V 23 7.4550781 C 44,6.0951703 42.996584,5 41.75,5 H 26 8 Z"/>
 <path style="fill:#5c5c6c" d="M 26,22 V 40 H 41.749999 C 42.996583,40 44,38.905363 44,37.545455 V 22 Z m 0,0"/>
 <path style="fill:#cccccc" d="M 8,40 H 26 V 22 H 8 Z m 0,0"/>
 <path style="fill:#cccccc" d="M 26,22.000001 V 4.0000011 H 41.749999 C 42.996583,4.0000011 44,5.0946386 44,6.4545464 V 22.000001 Z m 0,0"/>
 <path style="fill:#5c5c6c" d="M 8,4.0000011 H 26 V 22.000001 H 8 Z m 0,0"/>
 <path style="opacity:0.1" d="M 22,11.81962 C 22,10.263217 20.794642,9 19.307079,9 18.328125,9 17.470344,9.5478408 17,10.367089 16.529655,9.5478408 15.671874,9 14.692921,9 13.205357,9 12,10.263217 12,11.81962 c 0,0.810872 0.326849,1.541326 0.849808,2.055658 h -0.0017 L 16.937708,18 21.151675,13.875278 h -0.0017 c 0.522957,-0.514332 0.849806,-1.244786 0.849806,-2.055658"/>
 <path style="fill:#dedcd9" d="M 22,10.81962 C 22,9.2632169 20.794642,8 19.307079,8 18.328125,8 17.470344,8.5478408 17,9.3670887 16.529655,8.5478408 15.671874,8 14.692921,8 13.205357,8 12,9.2632169 12,10.81962 c 0,0.810872 0.326849,1.541326 0.849808,2.055658 h -0.0017 L 16.937708,17 21.151675,12.875278 h -0.0017 c 0.522957,-0.514332 0.849806,-1.244786 0.849806,-2.055658"/>
 <path style="fill:#5c5c6c" d="M 35 8 C 32.216961 8 30 10.296629 30 13 C 30 15.703372 32.216962 18 35 18 C 37.783039 18 40 15.703373 40 13 C 40 10.296628 37.783039 8 35 8 z M 35 11 C 36.078057 11 37 11.828417 37 13 C 37 14.171585 36.078057 15 35 15 C 33.921941 15 33 14.171587 33 13 C 33 11.828417 33.921943 11 35 11 z"/>
 <path style="opacity:0.2" d="m 35.378906,26.013365 a 1.3489199,1.3489199 0 0 0 -0.992187,2.294922 l 1.632812,1.707031 h -4.810547 a 1.1628974,1.5 0 1 0 0,2.996094 h 4.810547 l -1.632812,1.707031 a 1.3489396,1.3489396 0 1 0 1.949219,1.865234 l 4.849609,-5.070312 -4.849609,-5.070312 a 1.3489199,1.3489199 0 0 0 -0.957032,-0.429688 z"/>
 <path style="fill:none;stroke:#dedcd9;stroke-width:2.69757009;stroke-linecap:round" d="m 35.362105,26.362705 3.957412,4.137296 -3.957412,4.137295"/>
 <path style="fill:#dedcd9" d="m 31.209607,29.00121 a 1.1628974,1.5 0 1 0 0,2.997579 h 7.580786 a 1.1628974,1.5 0 1 0 0,-2.997579 z"/>
 <path style="fill:#5c5c6c" d="M 14.000001,26 C 15.104688,26 16,26.895313 16,28 16,29.104687 15.104688,30 14.000001,30 12.895313,30 12,29.104687 12,28 c 0,-1.104687 0.895313,-2 2.000001,-2 z"/>
 <path style="fill:#464559" d="M 4,4 H 8 V 40 H 4 Z m 0,0"/>
 <path style="fill:#fa5e4a" d="m 8,40 h 6 v 7 L 11,44.375001 8,47 Z m 0,0"/>
 <path style="fill:#5c5c6c" d="M 20.000001,26 C 21.104688,26 22,26.895313 22,28 22,29.104687 21.104688,30 20.000001,30 18.895313,30 18,29.104687 18,28 c 0,-1.104687 0.895313,-2 2.000001,-2 z"/>
 <path style="fill:#5c5c6c" d="M 14.000001,32 C 15.104688,32 16,32.895313 16,34 16,35.104687 15.104688,36 14.000001,36 12.895313,36 12,35.104687 12,34 c 0,-1.104687 0.895313,-2 2.000001,-2 z"/>
 <path style="fill:#5c5c6c" d="M 20.000001,32 C 21.104688,32 22,32.895313 22,34 22,35.104687 21.104688,36 20.000001,36 18.895313,36 18,35.104687 18,34 c 0,-1.104687 0.895313,-2 2.000001,-2 z"/>
 <rect style="opacity:0.2;fill:#ffffff" width="18" height="1" x="8" y="22"/>
 <rect style="opacity:0.1" width="18" height="1" x="26" y="22"/>
 <path style="opacity:0.1" d="M 35 8 C 32.216961 8 30 10.296629 30 13 C 30 13.167649 30.008732 13.333977 30.025391 13.498047 C 30.279145 11.018223 32.390901 9 35 9 C 37.609099 9 39.720855 11.018222 39.974609 13.498047 C 39.991268 13.333977 40 13.167649 40 13 C 40 10.296628 37.783039 8 35 8 z M 33.064453 13.5 C 33.025394 13.658948 33 13.823898 33 14 C 33 15.171587 33.921941 16 35 16 C 36.078057 16 37 15.171585 37 14 C 37 13.823898 36.974606 13.658948 36.935547 13.5 C 36.714751 14.398509 35.916013 15 35 15 C 34.083986 15 33.285248 14.39851 33.064453 13.5 z"/>
 <path style="opacity:0.1" d="M 14 26 C 12.895312 26 12 26.895313 12 28 C 12 28.173802 12.02866 28.339234 12.070312 28.5 C 12.293403 27.63894 13.069115 27 14 27 C 14.930885 27 15.706597 27.63894 15.929688 28.5 C 15.97134 28.339234 16 28.173802 16 28 C 16 26.895313 15.104687 26 14 26 z M 20 26 C 18.895312 26 18 26.895313 18 28 C 18 28.173802 18.02866 28.339234 18.070312 28.5 C 18.293403 27.63894 19.069115 27 20 27 C 20.930885 27 21.706597 27.63894 21.929688 28.5 C 21.97134 28.339234 22 28.173802 22 28 C 22 26.895313 21.104687 26 20 26 z M 14 32 C 12.895312 32 12 32.895313 12 34 C 12 34.173802 12.02866 34.339234 12.070312 34.5 C 12.293403 33.63894 13.069115 33 14 33 C 14.930885 33 15.706597 33.63894 15.929688 34.5 C 15.97134 34.339234 16 34.173802 16 34 C 16 32.895313 15.104687 32 14 32 z M 20 32 C 18.895312 32 18 32.895313 18 34 C 18 34.173802 18.02866 34.339234 18.070312 34.5 C 18.293403 33.63894 19.069115 33 20 33 C 20.930885 33 21.706597 33.63894 21.929688 34.5 C 21.97134 34.339234 22 34.173802 22 34 C 22 32.895313 21.104687 32 20 32 z"/>
 <path style="fill:#ffffff;opacity:0.1" d="M 4 4 L 4 5 L 8 5 L 26 5 L 41.75 5 C 42.996584 5 44 6.0951703 44 7.4550781 L 44 6.4550781 C 44 5.0951703 42.996584 4 41.75 4 L 26 4 L 8 4 L 4 4 z"/>
</svg>

<svg clip-rule="evenodd" fill-rule="evenodd" stroke-linecap="round" viewBox="0 0 48 48" xmlns="http://www.w3.org/2000/svg">
 <linearGradient id="a" x1="2.332" x2="2.332002" y1="5.00248" y2="5.00248" gradientUnits="userSpaceOnUse">
  <stop stop-color="#d8d8d8" offset="0"/>
  <stop stop-color="#e4e4e4" offset="1"/>
 </linearGradient>
 <linearGradient id="b" x2="1" gradientTransform="matrix(0 -35.8067 35.8067 0 6 39.8067)" gradientUnits="userSpaceOnUse">
  <stop stop-color="#25225b" offset="0"/>
  <stop stop-color="#3b3960" offset="1"/>
 </linearGradient>
 <g fill-rule="nonzero">
  <path d="m2.332 10.999h40.002c1.848 0 3.334 1.472 3.334 3.302v25.139c0 3.438-2.79 6.228-6.228 6.228h-37.108z" fill="#e4e4e4"/>
  <path transform="matrix(1.0834 0 0 1.0834 -2.0016 -2.0016)" d="m26 22v18h15.75c1.247 0 2.25-1.095 2.25-2.455v-15.545z" fill="#363656"/>
  <path d="m26.167 41.334h-19.501v-19.501h19.501v-19.501h13.273c3.438 0 6.228 2.79 6.228 6.228v13.273h-19.501z" fill="url(#a)"/>
  <path d="m6.6656 2.332h19.5012v19.5012h-19.5012z" fill="#363656" stroke-width="1.0834"/>
  <path transform="matrix(1.0834 0 0 1.0834 -2.0016 -2.0016)" d="m22 10.82c0-1.557-1.205-2.82-2.693-2.82-.979 0-1.837.548-2.307 1.367-.47-.819-1.328-1.367-2.307-1.367-1.488 0-2.693 1.263-2.693 2.82 0 .81.327 1.541.85 2.055h-.002l4.09 4.125 4.214-4.125h-.002c.523-.514.85-1.245.85-2.055" fill="#dedcd9"/>
  <path transform="matrix(1.0834 0 0 1.0834 -2.0016 -2.0016)" d="m35 8c-2.783 0-5 2.297-5 5s2.217 5 5 5 5-2.297 5-5-2.217-5-5-5zm0 3c1.078 0 2 .828 2 2s-.922 2-2 2-2-.828-2-2 .922-2 2-2z" fill="#363656"/>
 </g>
 <path transform="matrix(1.0834 0 0 1.0834 -2.0016 -2.0016)" d="m35.362 26.363 3.958 4.137-3.958 4.137" fill="none" stroke="#dedcd9" stroke-width="2.7"/>
 <path transform="matrix(1.0834 0 0 1.0834 -2.0016 -2.0016)" d="m31.21 29.001c-.016-.001-.032-.001-.047-.001-.638 0-1.163.677-1.163 1.5s.525 1.5 1.163 1.5c.015 0 .031 0 .047-.001h7.58c.016.001.032.001.047.001.638 0 1.163-.677 1.163-1.5s-.525-1.5-1.163-1.5c-.015 0-.031 0-.047.001z" fill="#dedcd9" fill-rule="nonzero"/>
 <path transform="matrix(1.0834 0 0 1.0834 -2.0016 -2.0016)" d="m4 4h4v36h-4z" fill="url(#b)" fill-rule="nonzero"/>
 <path transform="matrix(1.0834 0 0 1.0834 -2.0016 -2.0016)" d="m14 32c1.105 0 2 .895 2 2s-.895 2-2 2-2-.895-2-2 .895-2 2-2zm6 0c1.105 0 2 .895 2 2s-.895 2-2 2-2-.895-2-2 .895-2 2-2zm-6-6c1.105 0 2 .895 2 2s-.895 2-2 2-2-.895-2-2 .895-2 2-2zm6 0c1.105 0 2 .895 2 2s-.895 2-2 2-2-.895-2-2 .895-2 2-2z" fill="#363656" fill-rule="nonzero"/>
 <path transform="matrix(1.07758 0 0 1.07758 -1.86195 -1.97833)" d="m8 40h6v6.033l-3-2.625-3 2.625z" fill="#ee3c25" fill-rule="nonzero"/>
</svg>
